static/assets/images/networks/celo-mono.svg

<svg width="255" height="256" viewBox="0 0 255 256" fill="none" xmlns="http://www.w3.org/2000/svg">
<path d="M8.19935 0H246.801C251.329 0 255 3.67356 255 8.20513V82.6236C255 87.1552 251.329 90.8288 246.801 90.8288H218.77C215.514 90.8288 212.595 88.8849 211.123 85.9784C195.57 55.251 164.096 34.0621 127.678 34.0621C75.8755 34.0621 33.9239 76.1781 33.9239 127.821C33.9239 179.464 75.8755 221.943 127.678 221.943C163.386 221.943 194.812 201.44 210.367 171.426C211.855 168.555 214.757 166.638 217.989 166.638H246.796C251.324 166.638 254.995 170.312 254.995 174.843V247.795C254.995 252.326 251.324 256 246.796 256H8.19936C3.67098 256 0 252.326 0 247.795V8.20513C0 3.67356 3.67097 0 8.19935 0Z" fill="black"/>
</svg>

<svg xmlns="http://www.w3.org/2000/svg" fill="none" viewBox="0 0 256 256"><path fill="#000" d="M8.203 0h238.702a8.204 8.204 0 0 1 8.203 8.205v74.419a8.204 8.204 0 0 1-8.203 8.205h-28.043c-3.257 0-6.177-1.944-7.649-4.85-15.56-30.728-47.047-51.917-83.481-51.917-51.824 0-93.794 42.116-93.794 93.759s41.97 94.122 93.794 94.122c35.723 0 67.162-20.503 82.724-50.517 1.488-2.871 4.392-4.788 7.625-4.788H246.9a8.205 8.205 0 0 1 8.203 8.205v72.952A8.205 8.205 0 0 1 246.9 256H8.203A8.204 8.204 0 0 1 0 247.795V8.205A8.204 8.204 0 0 1 8.203 0"/></svg>
